build/category/DangerOutline.svg

<svg xmlns="http://www.w3.org/2000/svg" fill="none" viewBox="0 0 24 24" focusable="false"><path d="M0 0H24V24H0z"/><path fill="#74767B" fill-rule="evenodd" d="M6.54128 19.156L6.59739 19.2004L6.59833 19.1992C8.10284 20.3299 9.97328 20.9999 12.0002 20.9999C14.0275 20.9999 15.8982 20.3297 17.4028 19.1986L17.4049 19.2014C17.4487 19.1669 17.4922 19.1322 17.5352 19.0972C18.5868 18.2759 19.4511 17.2261 20.0535 16.0223C20.4918 15.1574 20.7766 14.2405 20.9119 13.2951C20.9732 12.8669 21.0039 12.4328 21.0043 11.9951L21.0002 11.9951C20.9984 8.47396 18.9744 5.42572 16.0267 3.94867L16.0277 3.94675C15.6359 3.75152 15.2338 3.585 14.8233 3.44851C13.8225 3.11577 12.7713 2.96153 11.6956 3.005C10.3911 3.04838 9.15684 3.3694 8.05012 3.91085C8.02423 3.92281 7.99834 3.93489 7.97246 3.9471L7.97334 3.94887C5.02609 5.42586 3.00244 8.47355 3.00021 11.9941L2.99805 11.9941C2.99843 12.4318 3.02909 12.8659 3.0904 13.2942C3.20352 14.0843 3.42099 14.8545 3.74523 15.5911C4.36142 17.0056 5.33051 18.2309 6.54128 19.156ZM8.55511 5.11175C6.03356 6.37535 4.30218 8.98278 4.30021 11.9948L9 11.9972C9.00142 10.824 9.67614 9.80841 10.6585 9.31621L8.55511 5.11175ZM11.9541 9.0003C11.9697 9.00006 11.9853 8.99994 12.001 8.99994C12.009 8.99994 12.0622 9.00051 12.0471 9.00028L14.2332 4.62869C13.5264 4.41489 12.7767 4.29994 12.0002 4.29994C11.9134 4.29994 11.827 4.30138 11.7409 4.30422C11.0954 4.33091 10.4375 4.44115 9.77351 4.64159L11.9541 9.0003ZM13.3359 9.31235C14.3235 9.80364 15.002 10.8231 15.002 12.0009L15.0022 11.9982L19.7002 11.9958C19.6986 8.98327 17.967 6.37536 15.4451 5.11165L13.3428 9.31578C13.3405 9.31463 13.3382 9.31349 13.3359 9.31235ZM17.5883 17.2798L14.6651 13.3842L14.708 13.2984L19.5916 13.2958C19.4606 14.069 19.2143 14.803 18.871 15.4795C18.5437 16.1148 18.1176 16.7189 17.5883 17.2798ZM12.001 15.002C12.6771 15.002 13.3011 14.7784 13.8029 14.4011L16.6225 18.1588C15.3352 19.1265 13.7347 19.6999 12.0002 19.6999C10.2661 19.6999 8.66581 19.1267 7.37862 18.1593L10.1989 14.4008C10.7007 14.7783 11.3247 15.002 12.001 15.002ZM9.33684 13.3837C9.32201 13.3552 9.30763 13.3264 9.29371 13.2974L4.40863 13.2949C4.51758 13.9382 4.70634 14.5545 4.96436 15.1331C5.30873 15.8953 5.78961 16.6171 6.41401 17.2789L9.33684 13.3837ZM13.702 12.0009C13.702 12.9404 12.9404 13.702 12.001 13.702C11.0616 13.702 10.3 12.9404 10.3 12.0009C10.3 11.0615 11.0616 10.2999 12.001 10.2999C12.9404 10.2999 13.702 11.0615 13.702 12.0009Z"/></svg>

<svg xmlns="http://www.w3.org/2000/svg" fill="none" viewBox="0 0 24 24" focusable="false"><path fill="#74767B" fill-rule="evenodd" d="m6.54 19.15.05.05v-.01a9 9 0 0 0 5.41 1.8c2.02 0 3.89-.67 5.4-1.8v.01c.04-.04.09-.07.13-.11a9.04 9.04 0 0 0 2.52-3.07 8.86 8.86 0 0 0 .95-4.03 9.03 9.03 0 0 0-4.98-8.05c-.39-.19-.79-.36-1.2-.5-1-.33-2.05-.48-3.13-.44-1.3.04-2.54.36-3.64.91-.03.01-.06.02-.08.03A9 9 0 0 0 3 11.99h-.01c0 .44.03.87.1 1.3.11.79.33 1.56.65 2.3a9.06 9.06 0 0 0 2.8 3.56M8.55 5.11a7.69 7.69 0 0 0-4.25 6.88H9c0-1.17.67-2.19 1.65-2.68zM11.95 9c.01 0 .03-.01.05-.01 0 0 .06.01.04.01l2.19-4.38c-.71-.21-1.46-.33-2.23-.33-.09 0-.18.01-.26.01-.65.03-1.31.14-1.97.34zm1.38.31C14.32 9.8 15 10.82 15 12v-.01h4.7a7.72 7.72 0 0 0-4.26-6.88l-2.1 4.2zm4.25 7.96-2.92-3.89.04-.09h4.89c-.13.77-.38 1.51-.72 2.18q-.495.96-1.29 1.8M12 15c.67 0 1.3-.23 1.8-.6l2.82 3.75a7.675 7.675 0 0 1-9.25 0l2.82-3.75c.51.37 1.13.6 1.81.6m-2.67-1.62c-.01-.03-.03-.06-.04-.09H4.4a7.572 7.572 0 0 0 2.01 3.98zM13.7 12c0 .94-.76 1.7-1.7 1.7s-1.71-.76-1.71-1.7.77-1.71 1.71-1.71 1.7.77 1.7 1.71"/></svg>
